src/assets/duotone/StatusUp.svg

<svg width="24" height="24" viewBox="0 0 24 24"  xmlns="http://www.w3.org/2000/svg">
<path opacity="0.4" d="M16.19 2H7.81C4.17 2 2 4.17 2 7.81V16.18C2 19.83 4.17 22 7.81 22H16.18C19.82 22 21.99 19.83 21.99 16.19V7.81C22 4.17 19.83 2 16.19 2Z" />
<path d="M6.87988 18.9001C6.46988 18.9001 6.12988 18.5601 6.12988 18.1501V16.0801C6.12988 15.6701 6.46988 15.3301 6.87988 15.3301C7.28988 15.3301 7.62988 15.6701 7.62988 16.0801V18.1501C7.62988 18.5701 7.28988 18.9001 6.87988 18.9001Z" />
<path d="M12 18.9C11.59 18.9 11.25 18.56 11.25 18.15V14C11.25 13.59 11.59 13.25 12 13.25C12.41 13.25 12.75 13.59 12.75 14V18.15C12.75 18.57 12.41 18.9 12 18.9Z" />
<path d="M17.1201 18.8997C16.7101 18.8997 16.3701 18.5597 16.3701 18.1497V11.9297C16.3701 11.5197 16.7101 11.1797 17.1201 11.1797C17.5301 11.1797 17.8701 11.5197 17.8701 11.9297V18.1497C17.8701 18.5697 17.5401 18.8997 17.1201 18.8997Z" />
<path d="M17.87 5.81961C17.87 5.76961 17.85 5.70961 17.84 5.65961C17.83 5.61961 17.82 5.56961 17.81 5.52961C17.79 5.48961 17.76 5.45961 17.74 5.41961C17.71 5.37961 17.68 5.32961 17.64 5.29961C17.63 5.28961 17.63 5.27961 17.62 5.27961C17.59 5.25961 17.56 5.24961 17.53 5.22961C17.49 5.19961 17.44 5.16961 17.39 5.14961C17.34 5.12961 17.29 5.12961 17.24 5.11961C17.2 5.10961 17.17 5.09961 17.13 5.09961H14.2C13.79 5.09961 13.45 5.43961 13.45 5.84961C13.45 6.25961 13.79 6.59961 14.2 6.59961H15.45C13.07 9.09961 10.07 10.8596 6.69998 11.7096C6.29998 11.8096 6.04998 12.2196 6.14998 12.6196C6.22998 12.9596 6.53998 13.1896 6.87998 13.1896C6.93998 13.1896 6.99998 13.1796 7.05998 13.1696C10.63 12.2796 13.82 10.4296 16.37 7.80961V8.77961C16.37 9.18961 16.71 9.52961 17.12 9.52961C17.53 9.52961 17.87 9.18961 17.87 8.77961V5.84961C17.87 5.83961 17.87 5.82961 17.87 5.81961Z" />
</svg>

<?xml version="1.0" encoding="UTF-8"?>
<svg width="24" height="24" viewBox="0 0 24 24" xmlns="http://www.w3.org/2000/svg">
 <path d="M16.19 2H7.81C4.17 2 2 4.17 2 7.81V16.18C2 19.83 4.17 22 7.81 22H16.18C19.82 22 21.99 19.83 21.99 16.19V7.81C22 4.17 19.83 2 16.19 2Z" opacity=".4"/>
 <path d="m6.8799 18.9c-0.41 0-0.75-0.34-0.75-0.75v-2.07c0-0.41 0.34-0.75 0.75-0.75s0.75 0.34 0.75 0.75v2.07c0 0.42-0.34 0.75-0.75 0.75z"/>
 <path d="m12 18.9c-0.41 0-0.75-0.34-0.75-0.75v-4.15c0-0.41 0.34-0.75 0.75-0.75s0.75 0.34 0.75 0.75v4.15c0 0.42-0.34 0.75-0.75 0.75z"/>
 <path d="m17.12 18.9c-0.41 0-0.75-0.34-0.75-0.75v-6.22c0-0.41 0.34-0.75 0.75-0.75s0.75 0.34 0.75 0.75v6.22c0 0.42-0.33 0.75-0.75 0.75z"/>
 <path d="m17.87 5.8196c0-0.05-0.02-0.11-0.03-0.16-0.01-0.04-0.02-0.09-0.03-0.13-0.02-0.04-0.05-0.07-0.07-0.11-0.03-0.04-0.06-0.09-0.1-0.12-0.01-0.01-0.01-0.02-0.02-0.02-0.03-0.02-0.06-0.03-0.09-0.05-0.04-0.03-0.09-0.06-0.14-0.08s-0.1-0.02-0.15-0.03c-0.04-0.01-0.07-0.02-0.11-0.02h-2.93c-0.41 0-0.75 0.34-0.75 0.75s0.34 0.75 0.75 0.75h1.25c-2.38 2.5-5.38 4.26-8.75 5.11-0.4 0.1-0.65 0.51-0.55 0.91 0.08 0.34 0.39 0.57 0.73 0.57 0.06 0 0.12-0.01 0.18-0.02 3.57-0.89 6.76-2.74 9.31-5.36v0.97c0 0.41 0.34 0.75 0.75 0.75s0.75-0.34 0.75-0.75v-2.93-0.03z"/>
</svg>
